img/icons/instagram.svg

<svg width="13" height="13" viewBox="0 0 13 13" xmlns="http://www.w3.org/2000/svg">
  <path d="M9.41239 0H3.58745C1.60933 0 0 1.60941 0 3.58753V9.41247C0 11.3907 1.60933 13 3.58745 13H9.41239C11.3907 13 13 11.3906 13 9.41247V3.58753C13.0001 1.60941 11.3907 0 9.41239 0ZM11.8467 9.41247C11.8467 10.7547 10.7547 11.8466 9.41247 11.8466H3.58745C2.24533 11.8467 1.15342 10.7547 1.15342 9.41247V3.58753C1.15342 2.24541 2.24533 1.15342 3.58745 1.15342H9.41239C10.7546 1.15342 11.8466 2.24541 11.8466 3.58753L11.8467 9.41247Z" />
  <path d="M6.50006 3.15033C4.65297 3.15033 3.1503 4.65301 3.1503 6.50011C3.1503 8.34713 4.65297 9.84973 6.50006 9.84973C8.34715 9.84973 9.84982 8.34713 9.84982 6.50011C9.84982 4.65301 8.34715 3.15033 6.50006 3.15033ZM6.50006 8.69623C5.28905 8.69623 4.30372 7.71105 4.30372 6.50003C4.30372 5.28893 5.28897 4.30368 6.50006 4.30368C7.71115 4.30368 8.69641 5.28893 8.69641 6.50003C8.69641 7.71105 7.71108 8.69623 6.50006 8.69623Z" />
  <path d="M9.99027 2.1724C9.76803 2.1724 9.54971 2.26236 9.39276 2.41999C9.23504 2.57686 9.14437 2.79524 9.14437 3.01823C9.14437 3.24053 9.23512 3.45883 9.39276 3.61646C9.54963 3.77333 9.76803 3.86406 9.99027 3.86406C10.2133 3.86406 10.4309 3.77333 10.5885 3.61646C10.7462 3.45883 10.8362 3.24045 10.8362 3.01823C10.8362 2.79524 10.7462 2.57686 10.5885 2.41999C10.4317 2.26236 10.2133 2.1724 9.99027 2.1724Z" />
</svg>

<svg width="13" height="13" fill="none" xmlns="http://www.w3.org/2000/svg"><path d="M9.412 0H3.587A3.592 3.592 0 000 3.588v5.824A3.592 3.592 0 003.587 13h5.825A3.592 3.592 0 0013 9.412V3.588A3.592 3.592 0 009.412 0zm2.435 9.412a2.437 2.437 0 01-2.435 2.435H3.587a2.437 2.437 0 01-2.434-2.435V3.588a2.437 2.437 0 012.434-2.435h5.825a2.437 2.437 0 012.435 2.435v5.824z" fill="#fff"/><path d="M6.5 3.15A3.354 3.354 0 003.15 6.5 3.353 3.353 0 006.5 9.85 3.353 3.353 0 009.85 6.5 3.354 3.354 0 006.5 3.15zm0 5.546A2.199 2.199 0 014.304 6.5c0-1.211.985-2.196 2.196-2.196 1.211 0 2.196.985 2.196 2.196A2.199 2.199 0 016.5 8.696zm3.49-6.524a.85.85 0 00-.846.846c0 .223.091.44.249.598a.852.852 0 00.597.248.85.85 0 00.598-.248.85.85 0 00-.598-1.444z" fill="#fff"/></svg>
